svg/folder_zip_outline.svg

<svg xmlns="http://www.w3.org/2000/svg" viewBox="0 0 24 24"><path d="M20 6h-8l-2-2H4c-1.1 0-2 .9-2 2v12c0 1.1.9 2 2 2h16c1.1 0 2-.9 2-2V8c0-1.1-.9-2-2-2m0 12h-4v-2h-2v2H4V8h10v2h2V8h4zm-4-6v-2h2v2zm-2 0h2v2h-2zm4 4h-2v-2h2z"/></svg>

<?xml version="1.0" encoding="UTF-8"?><!DOCTYPE svg PUBLIC "-//W3C//DTD SVG 1.1//EN" "http://www.w3.org/Graphics/SVG/1.1/DTD/svg11.dtd"><svg xmlns="http://www.w3.org/2000/svg" xmlns:xlink="http://www.w3.org/1999/xlink" version="1.1" id="mdi-folder-zip-outline" width="24" height="24" viewBox="0 0 24 24"><path d="M20 6H12L10 4H4C2.9 4 2 4.9 2 6V18C2 19.1 2.9 20 4 20H20C21.1 20 22 19.1 22 18V8C22 6.9 21.1 6 20 6M20 18H16V16H14V18H4V8H14V10H16V8H20V18M16 12V10H18V12H16M14 12H16V14H14V12M18 16H16V14H18V16Z" /></svg>
